X: 3106
Q:"Reel."
M: C
L: 1/8
K: A
[|\
vAcca ecca | ecca e2(3(dcB) |\
afge fdec | dBBc d2(3(dcB) |]
[|\
(3(agf) (3(gfe) (3(fed) (3(edc) | dBBc d2(3(dcB) |]


